X:1
T:Title
%%score { ( 1 3 ) | ( 2 4 ) }
L:1/8
Q:1/4=100
M:4/4
K:Ab
V:1 treble nm="Grand Piano"
V:3 treble 
V:2 bass 
V:4 bass 
V:1
 [CE]2 [_C=D][_DF] [=CE]2 [CA][EA] | B2 AB [Ec]4 | [=Ec]2 [EG][GB] A2 GF | [=DB]2 [DF][DG] z2 _D2 | %4
w: T.~Frank~Allen * * * * *||||
 [CE]2 [_C=D][_DF] [=CE]2 [EA]B | c2 Bc [Fd]4 | [Ee]2 [Ed][Ec] [FB]2 [Fc][Fd] | c2 cB [CA]4 | %8
w: ||||
 B2 Bc d>c B2 | c2 cd e4 |[M:9/8] e2 d c[FB]>[Fc] [Fd]3 |[M:4/4] c2 cB [CA]4 |] %12
w: ||||
V:2
 [A,,A,]2 [A,,A,][A,,A,] [A,,A,]2 [A,,A,][C,A,] | [E,G,E]2 [E,F,E][E,G,E] [A,,A,]4 | %2
 [C,G,]2 [C,C][C,C] [F,CF]2 [F,B,F][F,A,] | z4 G,2 z2 | %4
 [A,,A,]2 [A,,A,][A,,A,] [A,,A,]2 [C,A,][E,G,E] | [A,E]2 [A,_G][A,G][K:bass] [D,A,]4 | %6
 [C,A,]2 [B,,G,][A,,A,] [D,A,]2 [C,=A,][B,,B,] | [E,A,E]2 [E,G,E][E,G,D] [A,,A,]4 | %8
 [E,G,E]2 [E,G,E][E,A,E] [E,B,E]>[E,A,E] [E,G,E]2 | [A,E]2 [A,E][A,B,E] [A,CE]4 | %10
[M:9/8] [A,CE]2 [G,B,E] [A,E][D,B,]>[C,=A,] [B,,B,]3 |[M:4/4] [E,A,E]2 [E,G,E][E,G,D] [A,,A,]4 |] %12
V:3
 x8 | x8 | x8 | z4 E4 | x8 | x8 | x8 | x8 | x8 | x8 |[M:9/8] x9 |[M:4/4] x8 |] %12
V:4
 x8 | x8 | x8 | [B,,F,]2 [B,,A,][B,,B,] E,2- [E,B,]2 | x8 | x4[K:bass] x4 | x8 | x8 | x8 | x8 | %10
[M:9/8] x9 |[M:4/4] x8 |] %12

